src/xmb/monochrome/Bally - Astrocade (Tapes)-content.svg

<svg xmlns="http://www.w3.org/2000/svg" xml:space="preserve" id="Layer_1" x="0" y="0" version="1.1" viewBox="0 0 64 64"><style>.st0{fill:#fff}</style><path d="M56.9 14.9h-50c-1.1 0-2 .9-2 2v30c0 1.1.9 2 2 2h6l1.1-5.1s0-2 2-2h32c2 0 2 2 2 2l1.1 5.1h6c1.1 0 2-.9 2-2v-30c-.2-1-1.1-2-2.2-2M6.4 48c-.3 0-.5-.3-.5-.5s.3-.5.5-.5.5.3.5.5-.2.5-.5.5m0-31.1c-.3 0-.5-.3-.5-.5s.2-.4.5-.4.5.3.5.5-.2.4-.5.4M55.9 22v14c0 1.1-.9 2-2 2h-44c-1.1 0-2-.9-2-2V21.5l.3-.3 3.1-2.9.3-.3h40.8l.3.3 3.1 3.1.3.3v.3zm1.4 26c-.3 0-.5-.3-.5-.5s.3-.5.5-.5.5.3.5.5-.2.5-.5.5m0-31.1c-.3 0-.5-.3-.5-.5s.3-.5.5-.5.5.3.5.5-.2.5-.5.5" class="st0"/><path d="m11.9 18.9-3.1 2.9V36c0 .5.4 1.1 1.1 1.1h44c.5 0 1.1-.4 1.1-1.1V22l-3.1-3.1zm31 15.1h-22c-2.8 0-4.9-2.3-4.9-5.1s2.3-4.9 4.9-4.9h22c2.8 0 4.9 2.3 4.9 4.9.1 2.7-2.2 5.1-4.9 5.1" class="st0"/><path d="M42.9 24.9h-22c-2.3 0-4 1.7-4 4s1.7 4 4 4h22c2.3 0 4-1.7 4-4 0-2.2-1.7-4-4-4m-22 7.1c-1.6 0-2.9-1.3-2.9-3.1 0-1.6 1.3-2.9 2.9-2.9s2.9 1.3 2.9 2.9c.1 1.8-1.3 3.1-2.9 3.1m17-1.1c0 .5-.4 1.1-1.1 1.1h-10c-.5 0-1.1-.4-1.1-1.1v-4c0-.5.4-1.1 1.1-1.1h10c.5 0 1.1.4 1.1 1.1zm5 1.1c-1.7 0-3.1-1.3-3.1-3.1 0-1.6 1.3-2.9 2.9-2.9s2.9 1.3 2.9 2.9c.3 1.8-1.1 3.1-2.7 3.1m5 10.9h-32c-1.1 0-1.1 1.1-1.1 1.1l-1.1 5.1h36l-.8-5.1s0-1.1-1-1.1m-29 5.1c-.5 0-1.1-.4-1.1-1.1 0-.5.4-1.1 1.1-1.1s1.1.4 1.1 1.1c-.1.7-.5 1.1-1.1 1.1m5-1.1c-.5 0-1.1-.4-1.1-1.1s.4-1.1 1.1-1.1 1.1.4 1.1 1.1c-.1.7-.6 1.1-1.1 1.1m8-.9c-.5 0-1.1-.4-1.1-1.1s.5-.9 1.1-.9c.5 0 1.1.4 1.1 1.1s-.6.9-1.1.9m8 .9c-.5 0-1.1-.4-1.1-1.1s.4-1.1 1.1-1.1 1.1.4 1.1 1.1c-.1.7-.6 1.1-1.1 1.1m5 1.1c-.5 0-1.1-.4-1.1-1.1 0-.5.4-1.1 1.1-1.1s1.1.4 1.1 1.1c-.1.7-.5 1.1-1.1 1.1" class="st0"/></svg>

<?xml version="1.0" encoding="utf-8"?>
<svg version="1.1" id="Layer_1" xmlns="http://www.w3.org/2000/svg" xmlns:xlink="http://www.w3.org/1999/xlink" x="0px" y="0px"
	 viewBox="0 0 64 64" style="enable-background:new 0 0 64 64;" xml:space="preserve">
<style type="text/css">
	.st0{fill:#FFFFFF;}
</style>
<g>
	<path class="st0" d="M56.9,14.9h-50c-1.1,0-2,0.9-2,2v30c0,1.1,0.9,2,2,2h6l1.1-5.1c0,0,0-2,2-2h32c2,0,2,2,2,2l1.1,5.1h6
		c1.1,0,2-0.9,2-2v-30C58.9,15.9,58,14.9,56.9,14.9z M6.4,48c-0.3,0-0.5-0.3-0.5-0.5s0.3-0.5,0.5-0.5s0.5,0.3,0.5,0.5S6.7,48,6.4,48
		z M6.4,16.9c-0.3,0-0.5-0.3-0.5-0.5S6.1,16,6.4,16s0.5,0.3,0.5,0.5S6.7,16.9,6.4,16.9z M55.9,22v14c0,1.1-0.9,2-2,2h-44
		c-1.1,0-2-0.9-2-2V21.9v-0.4l0.3-0.3l3.1-2.9l0.3-0.3h0.4h40h0.4l0.3,0.3l3.1,3.1l0.3,0.3V22z M57.3,48c-0.3,0-0.5-0.3-0.5-0.5
		s0.3-0.5,0.5-0.5s0.5,0.3,0.5,0.5S57.6,48,57.3,48z M57.3,16.9c-0.3,0-0.5-0.3-0.5-0.5s0.3-0.5,0.5-0.5s0.5,0.3,0.5,0.5
		S57.6,16.9,57.3,16.9z"/>
	<path class="st0" d="M11.9,18.9l-3.1,2.9V36c0,0.5,0.4,1.1,1.1,1.1h44c0.5,0,1.1-0.4,1.1-1.1V22l-3.1-3.1H11.9z M42.9,34h-22
		c-2.8,0-4.9-2.3-4.9-5.1c0-2.8,2.3-4.9,4.9-4.9h22c2.8,0,4.9,2.3,4.9,4.9C47.9,31.6,45.6,34,42.9,34z"/>
	<path class="st0" d="M42.9,24.9h-22c-2.3,0-4,1.7-4,4c0,2.3,1.7,4,4,4h22c2.3,0,4-1.7,4-4C46.9,26.7,45.2,24.9,42.9,24.9z M20.9,32
		c-1.6,0-2.9-1.3-2.9-3.1c0-1.6,1.3-2.9,2.9-2.9c1.6,0,2.9,1.3,2.9,2.9C23.9,30.7,22.5,32,20.9,32z M37.9,30.9
		c0,0.5-0.4,1.1-1.1,1.1h-10c-0.5,0-1.1-0.4-1.1-1.1v-4c0-0.5,0.4-1.1,1.1-1.1h10c0.5,0,1.1,0.4,1.1,1.1V30.9z M42.9,32
		c-1.7,0-3.1-1.3-3.1-3.1c0-1.6,1.3-2.9,2.9-2.9c1.6,0,2.9,1.3,2.9,2.9C45.9,30.7,44.5,32,42.9,32z"/>
	<path class="st0" d="M47.9,42.9h-32c-1.1,0-1.1,1.1-1.1,1.1l-1.1,5.1h36L48.9,44C48.9,44,48.9,42.9,47.9,42.9z M18.9,48
		c-0.5,0-1.1-0.4-1.1-1.1c0-0.5,0.4-1.1,1.1-1.1c0.7,0,1.1,0.4,1.1,1.1C19.9,47.6,19.5,48,18.9,48z M23.9,46.9
		c-0.5,0-1.1-0.4-1.1-1.1c0-0.7,0.4-1.1,1.1-1.1c0.7,0,1.1,0.4,1.1,1.1C24.9,46.5,24.4,46.9,23.9,46.9z M31.9,46
		c-0.5,0-1.1-0.4-1.1-1.1c0-0.7,0.5-0.9,1.1-0.9c0.5,0,1.1,0.4,1.1,1.1S32.4,46,31.9,46z M39.9,46.9c-0.5,0-1.1-0.4-1.1-1.1
		c0-0.7,0.4-1.1,1.1-1.1c0.7,0,1.1,0.4,1.1,1.1C40.9,46.5,40.4,46.9,39.9,46.9z M44.9,48c-0.5,0-1.1-0.4-1.1-1.1
		c0-0.5,0.4-1.1,1.1-1.1c0.7,0,1.1,0.4,1.1,1.1C45.9,47.6,45.5,48,44.9,48z"/>
</g>
</svg>
